img/svg/futures.svg

<svg width="22" height="20" viewBox="0 0 22 20" fill="none" xmlns="http://www.w3.org/2000/svg">
<path d="M5.8 9.4V8.2M10.6 9.4V7M15.4 9.4V4.6M8.2 14.2L6.4 19M15.1936 18.9333L13.0723 14.2664M3.4 14.2C2.07451 14.2 1 13.1255 1 11.8V3.4C1 2.07452 2.07452 1 3.4 1H17.8C19.1255 1 20.2 2.07452 20.2 3.4V11.8C20.2 13.1255 19.1255 14.2 17.8 14.2H3.4Z" stroke="#58D068" stroke-width="2" stroke-linecap="round" stroke-linejoin="round"/>
</svg>

<svg width="22" height="20" viewBox="0 0 22 20" fill="none" xmlns="http://www.w3.org/2000/svg"><path d="M5.8 9.4V8.2m4.8 1.2V7m4.8 2.4V4.6m-7.2 9.6L6.4 19m8.794-.067l-2.122-4.667M3.4 14.2A2.4 2.4 0 011 11.8V3.4A2.4 2.4 0 013.4 1h14.4a2.4 2.4 0 012.4 2.4v8.4a2.4 2.4 0 01-2.4 2.4H3.4z" stroke="#58D068" stroke-width="2" stroke-linecap="round" stroke-linejoin="round"/></svg>
